Hatter-kde/actions/16/media-playlist-play.svg

<svg xmlns="http://www.w3.org/2000/svg" viewBox="0 0 16 16">
  <defs id="defs3051">
    <style type="text/css" id="current-color-scheme">
      .ColorScheme-Text {
        color:#363636;
      }
      </style>
  </defs>
 <path style="fill:currentColor;fill-opacity:1;stroke:none" 
     d="M 8 2 C 4.6862915 2 2 4.6862915 2 8 C 2 11.313708 4.6862915 14 8 14 L 8 13 C 5.2385763 13 3 10.761424 3 8 C 3 5.2385763 5.2385763 3 8 3 C 10.419003 3 12.43717 4.7176961 12.900391 7 L 13.910156 7 C 13.433066 4.1634955 10.972138 2 8 2 z M 7 4 L 7 8 L 7 9 L 8 9 L 9 9 L 9 8 L 8 8 L 8 7 L 8 4 L 7 4 z M 10 8 L 10 14 L 15 11 L 10 8 z "
     class="ColorScheme-Text"
     />
</svg>

<?xml version="1.0" encoding="UTF-8"?>
<svg viewBox="0 0 16 16" xmlns="http://www.w3.org/2000/svg">
 <defs id="defs3051">
  <style id="current-color-scheme" type="text/css">.ColorScheme-Text {
        color:#363636;
      }</style>
 </defs>
 <path class="ColorScheme-Text" d="m8 2c-3.3137 0-6 2.6863-6 6 0 3.3137 2.6863 6 6 6v-1c-2.7614 0-5-2.2386-5-5 0-2.7614 2.2386-5 5-5 2.419 0 4.4372 1.7177 4.9004 4h1.0098c-0.47709-2.8365-2.938-5-5.9102-5zm-1 2v4 1h1 1v-1h-1v-1-3h-1zm3 4v6l5-3-5-3z" fill="currentColor"/>
</svg>
